X: 4402
T: "NASTURTIUM" MAZURKA
R: Mazurka
%R: mazurka
B: James Kerr "Merry Melodies" v.4 p.44 #403
Z: 2016 John Chambers <jc:trillian.mit.edu>
M: 3/4
L: 1/8
K: D
|:\
A>A(.A2.d2) | d2c4 | A>A(.A2.f2) | e2d4 |\
d>d(.f2.a2) | a>Bg4 | f>Ae4 |[1 e>Ad4 :|[2 d2d4 |:\
c3edc | d>Ed4 | d3fe^d | e>Ee4 |
a3aba |[1 a>^g(.g2.g2) | ^g>f(.f2.f2) | f>e(.e2.e2) :|\
[2 a>^g(.g2.f2) | fedBF^G | Aba=ge"_D.C."c |] [K:=c]\
[K:G]\
|: "Trio."\
B3(ded) | d3(^GAB) | c3(dfe) | e2d4 |
g3(dcB) | B2A4 | e3(^cAG) | (GF)(ED^CD) |\
B3(Bed) | d3(^GAB) | c3(dfe) | e2d4 |\
g3(dcB) | (BA)(f3e) | (d^c=cA)(EF) | G2[g2B2]"_D.C."z2 :|

%%sep 1 1 500
%%sep 1 1 500

